Origami/24x24/apps/atom.svg

<svg width="24" height="24" version="1" xmlns="http://www.w3.org/2000/svg">
 <rect transform="matrix(0,-1,-1,0,0,0)" x="-22" y="-22" width="20" height="20" rx="10" ry="10" style="fill:#6a5d60"/>
 <path d="m9.171875 6.6464844c-0.1481875-0.0041875-0.2881094 0.0078125-0.3808594 0.0390625-0.455 0.156-0.7404375 0.4922343-0.8984375 1.0527343-0.1365 0.4885-0.1327344 1.3673126 0.0097657 2.1328126 0.0249999 0.1330002 0.0506406 0.2539372 0.0566406 0.2734372 0.0075 0.0275-0.0408594 0.046703-0.2558594 0.095703-1.051 0.24-1.8182969 0.5975-2.2792969 1.0625-0.207 0.207-0.3221719 0.386735-0.3886719 0.615235-0.0469999 0.1585-0.0469999 0.472406 0 0.628906 0.129 0.43 0.4924063 0.835859 1.0664063 1.193359 0.3985 0.246 0.5174844 0.271578 0.6464844 0.142578 0.0605-0.060499 0.0742187-0.087656 0.0742187-0.160156 0-0.1405-0.0429687-0.197187-0.2304687-0.304687-1.1755-0.662-1.3826563-1.326016-0.5976563-1.916016 0.3985-0.299 0.9550782-0.53525 1.7050782-0.71875 0.3285-0.08 0.4023437-0.091828 0.4023437-0.048828 0 0.0585 0.2421875 0.832016 0.3671875 1.166016l0.1289062 0.349609-0.1699218 0.328125c-0.6795 1.3125-1.1154688 2.650406-1.1679688 3.628906-0.043 0.754 0.0937813 1.292953 0.4257813 1.626953 0.363 0.3635 0.8752031 0.441469 1.5332031 0.230469 0.248-0.08 0.7403437-0.329891 1.027344-0.525391 0.207-0.1385 0.251797-0.179453 0.279297-0.251953s0.0275-0.095875 0-0.171875c-0.041-0.1135-0.127141-0.175781-0.244141-0.175781-0.076 0-0.128719 0.02325-0.3242188 0.15625-0.4435 0.301-0.8595781 0.488375-1.2050781 0.546875-0.4785 0.082-0.7852812-0.128906-0.9257812-0.628906-0.0605-0.217-0.0567344-0.911984 0.0097656-1.271484 0.1015-0.572001 0.2792031-1.166016 0.5332031-1.791016 0.1505-0.371 0.4375625-0.992203 0.4765625-1.033203 0.0195-0.0215 0.044875 0.013609 0.109375 0.162109 0.3285 0.738 0.8303125 1.638688 1.3203129 2.367188 1.17 1.737 2.451 2.86925 3.4375 3.03125 0.429075 0.066714 0.791468-0.039515 1.072265-0.320313 0.2305-0.2345 0.38275-0.564437 0.46875-1.023437 0.0525-0.287 0.0525-1.089922 0-1.482422-0.16-1.17-0.586109-2.511656-1.224609-3.847656-0.0995-0.209001-0.156156-0.259766-0.285156-0.259766-0.1445-2e-3 -0.261719 0.1095-0.261719 0.25 0 0.049 0.050812 0.181469 0.132812 0.355469 0.787 1.6775 1.209016 3.300609 1.166016 4.474609-0.0265 0.6995-0.203203 1.11925-0.533203 1.28125-0.1735 0.0855-0.392641 0.084234-0.681641-0.009766-1.3265-0.449-3.12325-2.695062-4.2812498-5.351562l-0.1152343-0.265625 0.1679687-0.287109c0.1895-0.326001 0.6681724-1.054516 0.8886714-1.353516l0.148438-0.199219h0.390625c2.3735 0 4.72275 0.536875 5.96875 1.359375 0.254 0.168 0.562297 0.47675 0.654297 0.65625 0.0665 0.125 0.072266 0.156266 0.072266 0.322266-1e-6 0.1625-0.006047 0.203234-0.060547 0.302734-0.1525 0.293-0.554766 0.597453-1.072266 0.814453-0.24 0.1015-0.304687 0.168141-0.304687 0.306641-1e-6 0.117 0.076406 0.215 0.191406 0.25 0.0745 0.0215 0.099422 0.017344 0.232422-0.035156 0.836-0.3305 1.40839-0.843782 1.52539-1.363282 0.033-0.1405 0.031047-0.404515-0.001953-0.541015-0.0625-0.268-0.285015-0.61325-0.541015-0.84375-1.1405-1.0235-3.560641-1.6834534-6.431641-1.7519534l-0.205078-0.0058594 0.240234-0.2695312c0.129-0.1505 0.359578-0.4005469 0.517578-0.5605469 0.8165-0.83 1.574328-1.3731094 2.236328-1.5996093 0.211-0.074 0.253657-0.0820313 0.472657-0.0820313 0.2035 0 0.251843 0.0077344 0.339843 0.0527344 0.1195 0.0565 0.253766 0.1932187 0.322266 0.3242187 0.1345 0.2675 0.179734 0.7382813 0.115234 1.2382813-0.0215 0.172-0.039062 0.3709531-0.039062 0.4394531 0 0.1155 0.003812 0.1329531 0.070312 0.1894531 0.0545 0.051 0.09161 0.0644531 0.16211 0.0644531 0.1135 0 0.2185-0.0605781 0.25-0.1425781 0.0935-0.242 0.142531-1.0994375 0.082031-1.4609375-0.094-0.555-0.331938-0.9298281-0.710938-1.1113281-0.67-0.324-1.642343-0.0076563-2.777343 0.9023437-0.5935 0.4765-1.375063 1.2850626-1.914063 1.9765626l-0.052734 0.0625-0.3183595 0.0175781c-0.2675 0.0155-0.7029844 0.0566871-1.2089844 0.1171871l-0.109375 0.013672-0.046875-0.2675779c-0.0915-0.533-0.0996093-0.6130469-0.0996093-1.1230469 0-0.4475 0.0058281-0.5333906 0.0488281-0.7128906 0.1055-0.453 0.3143437-0.7344687 0.5898437-0.7929687 0.379-0.08 0.8497656 0.1096093 1.5097654 0.5996093 0.211 0.1585001 0.467047 0.0234376 0.435547-0.2265624-0.0135-0.109-0.113219-0.2032344-0.449219-0.4277344-0.2815-0.1895-0.5974684-0.345875-0.8554684-0.421875-0.127-0.038-0.2834531-0.0583125-0.4316406-0.0625zm0.5039062 3.8457036c0 0.01-0.0896718 0.1485-0.2011718 0.3125-0.1115 0.162-0.2695625 0.398203-0.3515625 0.533203v0.001953c-0.08 0.131-0.1583282 0.250078-0.1738281 0.267578-0.0215001 0.023-0.0529376-0.03925-0.1484376-0.34375-0.1364999-0.42-0.1952343-0.646516-0.1777343-0.666016 0.029-0.0295 1.0527343-0.134969 1.0527343-0.105468zm2.0781248 1.505859c-0.414 0-0.75 0.337953-0.75 0.751953s0.336 0.75 0.75 0.75 0.75-0.336 0.75-0.75-0.336-0.751953-0.75-0.751953z" style="opacity:.2"/>
 <path d="m12 2c-5.54 0-10 4.46-10 10 0 0.084 4e-3 0.166 0.0058 0.25 0.1324-5.423 4.5382-9.75 9.9942-9.75 5.4558 0 9.862 4.327 9.994 9.75 2e-3 -0.08343 0.0059-0.16606 0.0059-0.25 0-5.54-4.46-10-10-10z" style="fill:#ffffff;opacity:.1"/>
 <path d="m2.0058 12.25c-2e-3 0.084-0.0058 0.166-0.0058 0.25 0 5.54 4.46 10 10 10s10-4.46 10-10c0-0.084-4e-3 -0.1665-6e-3 -0.25-0.132 5.423-4.538 9.75-9.994 9.75s-9.862-4.327-9.994-9.75z" style="opacity:.2"/>
 <path d="m9.171875 6.1464844c-0.1481875-0.0041875-0.2881094 0.0078125-0.3808594 0.0390625-0.455 0.156-0.7404375 0.4922343-0.8984375 1.0527343-0.1365 0.4885-0.1327344 1.3673125 0.0097657 2.1328126 0.0249999 0.133 0.0506406 0.2539374 0.0566406 0.2734374 0.0075 0.0275-0.0408594 0.0467032-0.2558594 0.0957032-1.051 0.24-1.8182969 0.5974996-2.2792969 1.0624996-0.207 0.207-0.3221719 0.386735-0.3886719 0.615235-0.0469999 0.1585-0.0469999 0.472406 0 0.628906 0.129 0.43 0.4924063 0.835859 1.0664063 1.193359 0.3985 0.246 0.5174844 0.273532 0.6464844 0.144532 0.0605-0.0605 0.0742187-0.08961 0.0742187-0.16211 0-0.1405-0.0429687-0.197187-0.2304687-0.304687-1.1755-0.662-1.3826563-1.326016-0.5976563-1.916016 0.3985-0.299 0.9550782-0.53525 1.7050782-0.71875 0.3285-0.08 0.4023437-0.091828 0.4023437-0.048828 0 0.0585 0.2421875 0.832016 0.3671875 1.166016l0.1289062 0.349609-0.1699218 0.328125c-0.6795 1.3125-1.1154688 2.650406-1.1679688 3.628906-0.043 0.754 0.0937813 1.292953 0.4257813 1.626953 0.363 0.3635 0.8752031 0.441469 1.5332031 0.230469 0.248-0.08 0.7403437-0.329891 1.027344-0.525391 0.207-0.138499 0.251797-0.179453 0.279297-0.251953s0.0275-0.095875 0-0.171875c-0.041-0.1135-0.127141-0.175781-0.244141-0.175781-0.076 0-0.128719 0.02325-0.3242188 0.15625-0.4435 0.301-0.8595781 0.488375-1.2050781 0.546875-0.4785 0.082-0.7852812-0.128906-0.9257812-0.628906-0.0605-0.217-0.0567344-0.911984 0.0097656-1.271484 0.1015-0.572 0.2792031-1.166016 0.5332031-1.791016 0.1505-0.371 0.4375625-0.992203 0.4765625-1.033203 0.0195-0.0215 0.044875 0.013609 0.109375 0.162109 0.3285 0.738 0.8303125 1.638688 1.3203129 2.367188 1.17 1.737 2.451 2.86925 3.4375 3.03125 0.429075 0.066714 0.791468-0.039515 1.072265-0.320313 0.2305-0.2345 0.38275-0.564437 0.46875-1.023437 0.0525-0.287 0.0525-1.089922 0-1.482422-0.16-1.17-0.586109-2.511656-1.224609-3.847656-0.0995-0.209-0.156156-0.259766-0.285156-0.259766-0.1445-2e-3 -0.261719 0.1095-0.261719 0.25 0 0.049 0.050812 0.181469 0.132812 0.355469 0.787 1.6775 1.209016 3.300609 1.166016 4.474609-0.0265 0.6995-0.203203 1.11925-0.533203 1.28125-0.1735 0.0855-0.392641 0.084234-0.681641-0.009766-1.3265-0.449-3.12325-2.695062-4.2812498-5.351562l-0.1152343-0.265625 0.1679687-0.287109c0.1895-0.326001 0.6681724-1.054516 0.8886714-1.353516l0.148438-0.1992189h0.390625c2.3735 0 4.72275 0.5368749 5.96875 1.3593749 0.254 0.168 0.562297 0.47675 0.654297 0.65625 0.0665 0.125 0.072266 0.156266 0.072266 0.322266 0 0.1625-0.006047 0.203234-0.060547 0.302734-0.1525 0.293-0.554766 0.597453-1.072266 0.814453-0.24 0.1015-0.304687 0.168141-0.304687 0.306641 0 0.117 0.076406 0.215 0.191406 0.25 0.0745 0.0215 0.099422 0.017344 0.232422-0.035156 0.836-0.3305 1.40839-0.843782 1.52539-1.363282 0.033-0.1405 0.031047-0.404515-0.001953-0.541015-0.0625-0.268-0.285015-0.61325-0.541015-0.84375-1.140501-1.0235-3.560641-1.6834534-6.431641-1.7519534l-0.205078-0.0058594 0.240234-0.2695312c0.129-0.1505 0.359578-0.4005469 0.517578-0.5605469 0.8165-0.83 1.574328-1.3731094 2.236328-1.5996093 0.211-0.074 0.253657-0.0820313 0.472657-0.0820313 0.2035 0 0.251843 0.0077344 0.339843 0.0527344 0.1195 0.0565 0.253766 0.1932187 0.322266 0.3242187 0.1345 0.2675 0.179734 0.7382813 0.115234 1.2382813-0.0215 0.172-0.039062 0.3709531-0.039062 0.4394531 0 0.1155 0.003812 0.1329531 0.070312 0.1894531 0.0545 0.051 0.09161 0.0644531 0.16211 0.0644531 0.1135 0 0.2185-0.0605781 0.25-0.1425781 0.0935-0.242 0.142531-1.0994375 0.082031-1.4609375-0.094-0.555-0.331938-0.9298281-0.710938-1.1113281-0.669999-0.324-1.642343-0.0076563-2.777343 0.9023437-0.5935 0.4765-1.375063 1.2850626-1.914063 1.9765626l-0.052734 0.0625-0.3183595 0.0175781c-0.2675 0.0155-0.7029844 0.0566875-1.2089844 0.1171875l-0.109375 0.0136718-0.046875-0.2675781c-0.0915-0.533-0.0996093-0.6130469-0.0996093-1.1230469 0-0.4475 0.0058281-0.5333906 0.0488281-0.7128906 0.1055-0.453 0.3143437-0.7344687 0.5898437-0.7929687 0.379-0.08 0.8497656 0.1096093 1.5097654 0.5996093 0.211 0.1585001 0.467047 0.0234376 0.435547-0.2265624-0.0135-0.109-0.113219-0.2032344-0.449219-0.4277344-0.2815-0.1895-0.5974684-0.345875-0.8554684-0.421875-0.127-0.038-0.2834531-0.0583125-0.4316406-0.0625zm0.5039062 3.8457031c0 0.0100005-0.0896718 0.1485005-0.2011718 0.3125005-0.1115 0.162-0.2695625 0.398203-0.3515625 0.533203v0.001953c-0.08 0.131-0.1583282 0.250078-0.1738281 0.267578-0.0215 0.023-0.0529376-0.03925-0.1484376-0.34375-0.1364999-0.42-0.1952343-0.646516-0.1777343-0.666016 0.029-0.0295 1.0527343-0.1349685 1.0527343-0.1054685zm2.0781248 1.5058595c-0.414 0-0.75 0.337953-0.75 0.751953s0.336 0.75 0.75 0.75 0.75-0.336 0.75-0.75-0.336-0.751953-0.75-0.751953z" style="fill:#ffffff"/>
</svg>

<svg xmlns="http://www.w3.org/2000/svg" width="24" height="24" version="1">
 <rect style="fill:#6a5d60" width="20" height="20" x="-22" y="-22" rx="10" ry="10" transform="matrix(0,-1,-1,0,0,0)"/>
 <path style="opacity:0.2" d="M 9.171875 6.6464844 C 9.0236875 6.6422969 8.8837656 6.6542969 8.7910156 6.6855469 C 8.3360156 6.8415469 8.0505781 7.1777812 7.8925781 7.7382812 C 7.7560781 8.2267812 7.7598437 9.1055938 7.9023438 9.8710938 C 7.9273437 10.004094 7.9529844 10.125031 7.9589844 10.144531 C 7.9664844 10.172031 7.918125 10.191234 7.703125 10.240234 C 6.652125 10.480234 5.8848281 10.837734 5.4238281 11.302734 C 5.2168281 11.509734 5.1016562 11.689469 5.0351562 11.917969 C 4.9881563 12.076469 4.9881563 12.390375 5.0351562 12.546875 C 5.1641562 12.976875 5.5275625 13.382734 6.1015625 13.740234 C 6.5000625 13.986234 6.6190469 14.011812 6.7480469 13.882812 C 6.8085469 13.822313 6.8222656 13.795156 6.8222656 13.722656 C 6.8222656 13.582156 6.7792969 13.525469 6.5917969 13.417969 C 5.4162969 12.755969 5.2091406 12.091953 5.9941406 11.501953 C 6.3926406 11.202953 6.9492188 10.966703 7.6992188 10.783203 C 8.0277188 10.703203 8.1015625 10.691375 8.1015625 10.734375 C 8.1015625 10.792875 8.34375 11.566391 8.46875 11.900391 L 8.5976562 12.25 L 8.4277344 12.578125 C 7.7482344 13.890625 7.3122656 15.228531 7.2597656 16.207031 C 7.2167656 16.961031 7.3535469 17.499984 7.6855469 17.833984 C 8.0485469 18.197484 8.56075 18.275453 9.21875 18.064453 C 9.46675 17.984453 9.9590937 17.734562 10.246094 17.539062 C 10.453094 17.400562 10.497891 17.359609 10.525391 17.287109 C 10.552891 17.214609 10.552891 17.191234 10.525391 17.115234 C 10.484391 17.001734 10.39825 16.939453 10.28125 16.939453 C 10.20525 16.939453 10.152531 16.962703 9.9570312 17.095703 C 9.5135312 17.396703 9.0974531 17.584078 8.7519531 17.642578 C 8.2734531 17.724578 7.9666719 17.513672 7.8261719 17.013672 C 7.7656719 16.796672 7.7694375 16.101688 7.8359375 15.742188 C 7.9374375 15.170187 8.1151406 14.576172 8.3691406 13.951172 C 8.5196406 13.580172 8.8067031 12.958969 8.8457031 12.917969 C 8.8652031 12.896469 8.8905781 12.931578 8.9550781 13.080078 C 9.2835781 13.818078 9.7853906 14.718766 10.275391 15.447266 C 11.445391 17.184266 12.726391 18.316516 13.712891 18.478516 C 14.141966 18.54523 14.504359 18.439001 14.785156 18.158203 C 15.015656 17.923703 15.167906 17.593766 15.253906 17.134766 C 15.306406 16.847766 15.306406 16.044844 15.253906 15.652344 C 15.093906 14.482344 14.667797 13.140688 14.029297 11.804688 C 13.929797 11.595687 13.873141 11.544922 13.744141 11.544922 C 13.599641 11.542922 13.482422 11.654422 13.482422 11.794922 C 13.482422 11.843922 13.533234 11.976391 13.615234 12.150391 C 14.402234 13.827891 14.82425 15.451 14.78125 16.625 C 14.75475 17.3245 14.578047 17.74425 14.248047 17.90625 C 14.074547 17.99175 13.855406 17.990484 13.566406 17.896484 C 12.239906 17.447484 10.443156 15.201422 9.2851562 12.544922 L 9.1699219 12.279297 L 9.3378906 11.992188 C 9.5273906 11.666187 10.006063 10.937672 10.226562 10.638672 L 10.375 10.439453 L 10.765625 10.439453 C 13.139125 10.439453 15.488375 10.976328 16.734375 11.798828 C 16.988375 11.966828 17.296672 12.275578 17.388672 12.455078 C 17.455172 12.580078 17.460938 12.611344 17.460938 12.777344 C 17.460937 12.939844 17.454891 12.980578 17.400391 13.080078 C 17.247891 13.373078 16.845625 13.677531 16.328125 13.894531 C 16.088125 13.996031 16.023438 14.062672 16.023438 14.201172 C 16.023437 14.318172 16.099844 14.416172 16.214844 14.451172 C 16.289344 14.472672 16.314266 14.468516 16.447266 14.416016 C 17.283266 14.085516 17.855656 13.572234 17.972656 13.052734 C 18.005656 12.912234 18.003703 12.648219 17.970703 12.511719 C 17.908203 12.243719 17.685688 11.898469 17.429688 11.667969 C 16.289188 10.644469 13.869047 9.9845156 10.998047 9.9160156 L 10.792969 9.9101562 L 11.033203 9.640625 C 11.162203 9.490125 11.392781 9.2400781 11.550781 9.0800781 C 12.367281 8.2500781 13.125109 7.7069687 13.787109 7.4804688 C 13.998109 7.4064688 14.040766 7.3984375 14.259766 7.3984375 C 14.463266 7.3984375 14.511609 7.4061719 14.599609 7.4511719 C 14.719109 7.5076719 14.853375 7.6443906 14.921875 7.7753906 C 15.056375 8.0428906 15.101609 8.5136719 15.037109 9.0136719 C 15.015609 9.1856719 14.998047 9.384625 14.998047 9.453125 C 14.998047 9.568625 15.001859 9.5860781 15.068359 9.6425781 C 15.122859 9.6935781 15.159969 9.7070312 15.230469 9.7070312 C 15.343969 9.7070312 15.448969 9.6464531 15.480469 9.5644531 C 15.573969 9.3224531 15.623 8.4650156 15.5625 8.1035156 C 15.4685 7.5485156 15.230562 7.1736875 14.851562 6.9921875 C 14.181562 6.6681875 13.209219 6.9845312 12.074219 7.8945312 C 11.480719 8.3710312 10.699156 9.1795938 10.160156 9.8710938 L 10.107422 9.9335938 L 9.7890625 9.9511719 C 9.5215625 9.9666719 9.0860781 10.007859 8.5800781 10.068359 L 8.4707031 10.082031 L 8.4238281 9.8144531 C 8.3323281 9.2814531 8.3242188 9.2014062 8.3242188 8.6914062 C 8.3242188 8.2439062 8.3300469 8.1580156 8.3730469 7.9785156 C 8.4785469 7.5255156 8.6873906 7.2440469 8.9628906 7.1855469 C 9.3418906 7.1055469 9.8126562 7.2951562 10.472656 7.7851562 C 10.683656 7.9436563 10.939703 7.8085938 10.908203 7.5585938 C 10.894703 7.4495938 10.794984 7.3553594 10.458984 7.1308594 C 10.177484 6.9413594 9.8615156 6.7849844 9.6035156 6.7089844 C 9.4765156 6.6709844 9.3200625 6.6506719 9.171875 6.6464844 z M 9.6757812 10.492188 C 9.6757812 10.502188 9.5861094 10.640688 9.4746094 10.804688 C 9.3631094 10.966688 9.2050469 11.202891 9.1230469 11.337891 L 9.1230469 11.339844 C 9.0430469 11.470844 8.9647187 11.589922 8.9492188 11.607422 C 8.9277187 11.630422 8.8962812 11.568172 8.8007812 11.263672 C 8.6642813 10.843672 8.6055469 10.617156 8.6230469 10.597656 C 8.6520469 10.568156 9.6757812 10.462687 9.6757812 10.492188 z M 11.753906 11.998047 C 11.339906 11.998047 11.003906 12.336 11.003906 12.75 C 11.003906 13.164 11.339906 13.5 11.753906 13.5 C 12.167906 13.5 12.503906 13.164 12.503906 12.75 C 12.503906 12.336 12.167906 11.998047 11.753906 11.998047 z"/>
 <path style="opacity:0.1;fill:#ffffff" d="M 12,2 C 6.46,2 2,6.46 2,12 2,12.084 2.004,12.166 2.0058,12.25 2.1382,6.827 6.544,2.5 12,2.5 c 5.4558,0 9.862,4.327 9.994,9.75 0.002,-0.08343 0.0059,-0.16606 0.0059,-0.25 0,-5.54 -4.46,-10 -10,-10 z"/>
 <path style="opacity:0.2" d="M 2.0058,12.25 C 2.0038,12.334 2,12.416 2,12.5 c 0,5.54 4.46,10 10,10 5.54,0 10,-4.46 10,-10 0,-0.084 -0.004,-0.1665 -0.006,-0.25 C 21.862,17.673 17.456,22 12,22 6.544,22 2.138,17.673 2.006,12.25 Z"/>
 <path style="fill:#ffffff" d="M 9.171875 6.1464844 C 9.0236875 6.1422969 8.8837656 6.1542969 8.7910156 6.1855469 C 8.3360156 6.3415469 8.0505781 6.6777812 7.8925781 7.2382812 C 7.7560781 7.7267812 7.7598437 8.6055937 7.9023438 9.3710938 C 7.9273437 9.5040938 7.9529844 9.6250312 7.9589844 9.6445312 C 7.9664844 9.6720312 7.918125 9.6912344 7.703125 9.7402344 C 6.652125 9.9802344 5.8848281 10.337734 5.4238281 10.802734 C 5.2168281 11.009734 5.1016562 11.189469 5.0351562 11.417969 C 4.9881563 11.576469 4.9881563 11.890375 5.0351562 12.046875 C 5.1641562 12.476875 5.5275625 12.882734 6.1015625 13.240234 C 6.5000625 13.486234 6.6190469 13.513766 6.7480469 13.384766 C 6.8085469 13.324266 6.8222656 13.295156 6.8222656 13.222656 C 6.8222656 13.082156 6.7792969 13.025469 6.5917969 12.917969 C 5.4162969 12.255969 5.2091406 11.591953 5.9941406 11.001953 C 6.3926406 10.702953 6.9492188 10.466703 7.6992188 10.283203 C 8.0277188 10.203203 8.1015625 10.191375 8.1015625 10.234375 C 8.1015625 10.292875 8.34375 11.066391 8.46875 11.400391 L 8.5976562 11.75 L 8.4277344 12.078125 C 7.7482344 13.390625 7.3122656 14.728531 7.2597656 15.707031 C 7.2167656 16.461031 7.3535469 16.999984 7.6855469 17.333984 C 8.0485469 17.697484 8.56075 17.775453 9.21875 17.564453 C 9.46675 17.484453 9.9590937 17.234562 10.246094 17.039062 C 10.453094 16.900563 10.497891 16.859609 10.525391 16.787109 C 10.552891 16.714609 10.552891 16.691234 10.525391 16.615234 C 10.484391 16.501734 10.39825 16.439453 10.28125 16.439453 C 10.20525 16.439453 10.152531 16.462703 9.9570312 16.595703 C 9.5135312 16.896703 9.0974531 17.084078 8.7519531 17.142578 C 8.2734531 17.224578 7.9666719 17.013672 7.8261719 16.513672 C 7.7656719 16.296672 7.7694375 15.601688 7.8359375 15.242188 C 7.9374375 14.670188 8.1151406 14.076172 8.3691406 13.451172 C 8.5196406 13.080172 8.8067031 12.458969 8.8457031 12.417969 C 8.8652031 12.396469 8.8905781 12.431578 8.9550781 12.580078 C 9.2835781 13.318078 9.7853906 14.218766 10.275391 14.947266 C 11.445391 16.684266 12.726391 17.816516 13.712891 17.978516 C 14.141966 18.04523 14.504359 17.939001 14.785156 17.658203 C 15.015656 17.423703 15.167906 17.093766 15.253906 16.634766 C 15.306406 16.347766 15.306406 15.544844 15.253906 15.152344 C 15.093906 13.982344 14.667797 12.640688 14.029297 11.304688 C 13.929797 11.095688 13.873141 11.044922 13.744141 11.044922 C 13.599641 11.042922 13.482422 11.154422 13.482422 11.294922 C 13.482422 11.343922 13.533234 11.476391 13.615234 11.650391 C 14.402234 13.327891 14.82425 14.951 14.78125 16.125 C 14.75475 16.8245 14.578047 17.24425 14.248047 17.40625 C 14.074547 17.49175 13.855406 17.490484 13.566406 17.396484 C 12.239906 16.947484 10.443156 14.701422 9.2851562 12.044922 L 9.1699219 11.779297 L 9.3378906 11.492188 C 9.5273906 11.166187 10.006063 10.437672 10.226562 10.138672 L 10.375 9.9394531 L 10.765625 9.9394531 C 13.139125 9.9394531 15.488375 10.476328 16.734375 11.298828 C 16.988375 11.466828 17.296672 11.775578 17.388672 11.955078 C 17.455172 12.080078 17.460938 12.111344 17.460938 12.277344 C 17.460938 12.439844 17.454891 12.480578 17.400391 12.580078 C 17.247891 12.873078 16.845625 13.177531 16.328125 13.394531 C 16.088125 13.496031 16.023438 13.562672 16.023438 13.701172 C 16.023438 13.818172 16.099844 13.916172 16.214844 13.951172 C 16.289344 13.972672 16.314266 13.968516 16.447266 13.916016 C 17.283266 13.585516 17.855656 13.072234 17.972656 12.552734 C 18.005656 12.412234 18.003703 12.148219 17.970703 12.011719 C 17.908203 11.743719 17.685688 11.398469 17.429688 11.167969 C 16.289187 10.144469 13.869047 9.4845156 10.998047 9.4160156 L 10.792969 9.4101562 L 11.033203 9.140625 C 11.162203 8.990125 11.392781 8.7400781 11.550781 8.5800781 C 12.367281 7.7500781 13.125109 7.2069687 13.787109 6.9804688 C 13.998109 6.9064688 14.040766 6.8984375 14.259766 6.8984375 C 14.463266 6.8984375 14.511609 6.9061719 14.599609 6.9511719 C 14.719109 7.0076719 14.853375 7.1443906 14.921875 7.2753906 C 15.056375 7.5428906 15.101609 8.0136719 15.037109 8.5136719 C 15.015609 8.6856719 14.998047 8.884625 14.998047 8.953125 C 14.998047 9.068625 15.001859 9.0860781 15.068359 9.1425781 C 15.122859 9.1935781 15.159969 9.2070312 15.230469 9.2070312 C 15.343969 9.2070312 15.448969 9.1464531 15.480469 9.0644531 C 15.573969 8.8224531 15.623 7.9650156 15.5625 7.6035156 C 15.4685 7.0485156 15.230562 6.6736875 14.851562 6.4921875 C 14.181563 6.1681875 13.209219 6.4845312 12.074219 7.3945312 C 11.480719 7.8710312 10.699156 8.6795938 10.160156 9.3710938 L 10.107422 9.4335938 L 9.7890625 9.4511719 C 9.5215625 9.4666719 9.0860781 9.5078594 8.5800781 9.5683594 L 8.4707031 9.5820312 L 8.4238281 9.3144531 C 8.3323281 8.7814531 8.3242188 8.7014062 8.3242188 8.1914062 C 8.3242188 7.7439062 8.3300469 7.6580156 8.3730469 7.4785156 C 8.4785469 7.0255156 8.6873906 6.7440469 8.9628906 6.6855469 C 9.3418906 6.6055469 9.8126562 6.7951562 10.472656 7.2851562 C 10.683656 7.4436563 10.939703 7.3085938 10.908203 7.0585938 C 10.894703 6.9495938 10.794984 6.8553594 10.458984 6.6308594 C 10.177484 6.4413594 9.8615156 6.2849844 9.6035156 6.2089844 C 9.4765156 6.1709844 9.3200625 6.1506719 9.171875 6.1464844 z M 9.6757812 9.9921875 C 9.6757812 10.002188 9.5861094 10.140688 9.4746094 10.304688 C 9.3631094 10.466688 9.2050469 10.702891 9.1230469 10.837891 L 9.1230469 10.839844 C 9.0430469 10.970844 8.9647187 11.089922 8.9492188 11.107422 C 8.9277188 11.130422 8.8962812 11.068172 8.8007812 10.763672 C 8.6642813 10.343672 8.6055469 10.117156 8.6230469 10.097656 C 8.6520469 10.068156 9.6757812 9.9626875 9.6757812 9.9921875 z M 11.753906 11.498047 C 11.339906 11.498047 11.003906 11.836 11.003906 12.25 C 11.003906 12.664 11.339906 13 11.753906 13 C 12.167906 13 12.503906 12.664 12.503906 12.25 C 12.503906 11.836 12.167906 11.498047 11.753906 11.498047 z"/>
</svg>
